X:1
T:Beautiful
T:Beautiful
T:Barney Elliott Warren
T:Barney Elliott Warren, 1911
T:Public Domain Courtesy of the Cyber Hymnal™
T:Public Domain Courtesy of the Cyber Hymnal™
C:Barney Elliott Warren
Z:Public Domain
Z:Courtesy of the Cyber Hymnal™
%%score ( 1 2 ) ( 3 4 )
L:1/8
M:12/8
K:C
V:1 treble 
V:2 treble 
V:3 bass 
V:4 bass 
V:1
 C[CD][CE] | [EG]3 [EG]3 [CE]3 [Ge][Fd][Ec] | [EG]3 [EG]3 [CE]3 [EG][DF][CE] | %3
w: 1.~Beau- ti- ful|robes so white, Beau- ti- ful|land of light, Beau- ti- ful|
w: 2.~Beau- ti- ful|tho’t to me, We shall for-|ev- er be Thine in e-|
w: 3.~Beau- ti- ful|things on high, O- ver in|yon- der sky, Thus I shall|
 [DF]3 [DF]3 [B,D]3 [FA][EG][DF] | [CE]3 [B,F]3 [CG]3 [EG][^D^F][EG] | %5
w: home so bright, Where there shall|come no night; Beau- ti- ful|
w: ter- ni- ty, When from this|world we’re free; Free from its|
w: leave this shore, Count- ing my|trea- sures o’er; Where we shall|
 [Ge]3 [Ge]3 [Ec]3 [Ec][FB][Gc] | [FA]3 [FA]3 [Ac]3 [Ac][GB][FA] | [EG]3 [EG]3 [FB]3 [Fd][Ec][DB] | %8
w: crown I’ll wear, Shin- ing with|stars o’er there, Yon- der in|man- sions fair, Ga- ther us|
w: toil and care, Heav- en- ly|joys to share, Let me cross|o- ver there; This is my|
w: nev- er die, Car- ry me|by and by, Nev- er to|sor- row more, Heav- en- ly|
 [Ec]6- [Ec]2 z ||"^Refrain" [Ec][DB][Ec] | [Fd]6- [Fd]3 [Ac][GB][FA] | %11
w: there. *|Beau- ti- ful|robes, * beau- ti- ful|
w: prayer. *|||
w: store. *|||
 [EG]6- [EG]2 z [EG][DF][CE] | [DF]6- [DF]3 [FA][EG][DF] | [CE]6- [CE]2 z [EG][^D^F][EG] | %14
w: land, * Beau- ti- ful|home, * beau- ti- ful|band, * Beau- ti- ful|
w: |||
w: |||
 [Ge]6- [Ge]3 [Ge][Fd][Ec] | [FA]6- [FA]2 z [Ac][GB][FA] | [EG]3 [DG]3 [EG]3 [Fd][Ec][DB] | %17
w: crown, * shin- ing so|fair, * Beau- ti- ful|man- sion bright, Ga- ther us|
w: |||
w: |||
 c3- c3- [Ec]2 z |] %18
w: there. * *|
w: |
w: |
V:2
 C x2 | x12 | x12 | x12 | x12 | x12 | x12 | x12 | x9 || x3 | x12 | x12 | x12 | x12 | x12 | x12 | %16
 x12 | E2 EFFF x3 |] %18
V:3
 [C,E,][C,F,][C,G,] | [C,C]3 [C,C]3 [C,G,]3 [C,C][C,C][C,C] | %2
w: ~ ~ ~|~ ~ ~ ~ ~ ~|
 [C,C]3 [C,C]3 [C,G,]3 [C,G,][C,G,][C,G,] | [G,,G,]3 [G,,G,]3 [G,,G,]3 [G,,G,][G,,G,][B,,G,] | %4
w: ~ ~ ~ ~ ~ ~|~ ~ ~ ~ ~ ~|
 [C,G,]3 [D,G,]3 [E,G,]3 [C,C][C,C][C,C] | [C,C]3 [C,C]3 [C,G,]3 [C,G,][D,G,][E,C] | %6
w: ~ ~ ~ ~ ~ ~|~ ~ ~ ~ ~ ~|
 [F,C]3 [F,C]3 [F,C]3 [F,C][F,C][F,C] | [G,C]3 [G,C]3 [G,C]3 [G,,G,][G,,G,][G,,G,] | %8
w: ~ ~ ~ ~ ~ ~|~ ~ ~ ~ ~ ~|
 [C,G,]6- [C,G,]2 z || z3 | [G,B,][G,B,][G,B,] [G,B,]2 [G,B,] [G,B,]3 z3 | %11
w: ~ *||Beau- ti- ful robes of white,|
 [C,C][C,C][C,C] [C,C]2 [C,C] [C,C]2 z4 | [G,,G,][G,,G,][G,,G,] [G,,G,]2 [G,,G,] [G,,G,]3 z3 | %13
w: Beau- ti- ful land of light|Beau- ti- ful home so bright,|
 [C,G,][C,G,][C,G,] [C,G,]2 [C,G,] [C,G,]2 z4 | [C,C][C,C][C,C] [C,C][C,C][C,C] [C,C]3 z3 | %15
w: Beau- ti- ful band of might,|Beau- ti- ful, beau- ti- ful crown,|
 [F,C][F,C][F,C] [F,C][F,C][F,C] [F,C]2 z4 | %16
w: Shin- ing, yes, shin- ing so fair,|
 [G,C][G,C][G,C] [G,B,]2 [G,B,] [G,C]3 [G,,G,][G,,G,][G,,G,] | G,2 G,A,A,A, [C,G,]2 z |] %18
w: Beau- ti- ful man- sion bright, ~ ~ ~|~ yes,~gather us there. * *|
V:4
 x3 | x12 | x12 | x12 | x12 | x12 | x12 | x12 | x9 || x3 | x12 | x12 | x12 | x12 | x12 | x12 | %16
 x12 | C,3- C,3- x3 |] %18

